static/img/kroki/78f62970ce47b7733de9f509c70cb425.svg

<?xml version="1.0" encoding="us-ascii" standalone="no"?><svg xmlns="http://www.w3.org/2000/svg" xmlns:xlink="http://www.w3.org/1999/xlink" contentStyleType="text/css" height="820px" preserveAspectRatio="none" style="width:403px;height:820px;" version="1.1" viewBox="0 0 403 820" width="403px" zoomAndPan="magnify"><defs/><g><!--class azure_sql_server_virtual_network_rule--><g id="elem_azure_sql_server_virtual_network_rule"><rect codeLine="23" fill="#3D176E" height="152.9766" id="azure_sql_server_virtual_network_rule" rx="2.5" ry="2.5" style="stroke:#000D19;stroke-width:0.5;" width="389" x="7" y="660.14"/><ellipse cx="32.35" cy="680.0345" fill="#ADD1B2" rx="11" ry="11" style="stroke:#181818;stroke-width:1.0;"/><path d="M35.3188,685.6752 Q34.7406,685.972 34.1,686.1127 Q33.4594,686.2689 32.7563,686.2689 Q30.2563,686.2689 28.9281,684.6283 Q27.6156,682.972 27.6156,679.847 Q27.6156,676.722 28.9281,675.0658 Q30.2563,673.4095 32.7563,673.4095 Q33.4594,673.4095 34.1,673.5658 Q34.7563,673.722 35.3188,674.0189 L35.3188,676.7377 Q34.6938,676.1595 34.1,675.8939 Q33.5063,675.6127 32.8813,675.6127 Q31.5375,675.6127 30.85,676.6908 Q30.1625,677.7533 30.1625,679.847 Q30.1625,681.9408 30.85,683.0189 Q31.5375,684.0814 32.8813,684.0814 Q33.5063,684.0814 34.1,683.8158 Q34.6938,683.5345 35.3188,682.9564 L35.3188,685.6752 Z " fill="#000000"/><text fill="#D9B8FF" font-family="Helvetica" font-size="17" lengthAdjust="spacing" textLength="324" x="53.65" y="685.9198">azure_sql_server_virtual_network_rule</text><line style="stroke:#000D19;stroke-width:0.5;" x1="8" x2="395" y1="699.9291" y2="699.9291"/><text fill="#D9B8FF" font-family="sans-serif" font-size="14" font-weight="bold" lengthAdjust="spacing" textLength="302" x="18" y="721.9242">ignore_missing_vnet_service_endpoint</text><text fill="#D9B8FF" font-family="sans-serif" font-size="14" lengthAdjust="spacing" textLength="65" x="320" y="721.9242">: boolean</text><text fill="#D9B8FF" font-family="sans-serif" font-size="14" font-weight="bold" lengthAdjust="spacing" textLength="40" x="18" y="748.2211">state</text><text fill="#D9B8FF" font-family="sans-serif" font-size="14" lengthAdjust="spacing" textLength="48" x="58" y="748.2211">: string</text><text fill="#D9B8FF" font-family="sans-serif" font-size="14" font-weight="bold" lengthAdjust="spacing" textLength="35" x="18" y="774.5179">type</text><text fill="#D9B8FF" font-family="sans-serif" font-size="14" lengthAdjust="spacing" textLength="48" x="53" y="774.5179">: string</text><text fill="#D9B8FF" font-family="sans-serif" font-size="14" font-weight="bold" lengthAdjust="spacing" textLength="205" x="18" y="800.8148">virtual_network_subnet_id</text><text fill="#D9B8FF" font-family="sans-serif" font-size="14" lengthAdjust="spacing" textLength="48" x="223" y="800.8148">: string</text></g><!--class microsoft_resource--><g id="elem_microsoft_resource"><rect codeLine="29" fill="#3D176E" height="100.3828" id="microsoft_resource" rx="2.5" ry="2.5" style="stroke:#000D19;stroke-width:0.5;" width="214" x="94.5" y="438.76"/><ellipse cx="115.8" cy="458.6545" fill="#ADD1B2" rx="11" ry="11" style="stroke:#181818;stroke-width:1.0;"/><path d="M118.7688,464.2952 Q118.1906,464.592 117.55,464.7327 Q116.9094,464.8889 116.2063,464.8889 Q113.7063,464.8889 112.3781,463.2483 Q111.0656,461.592 111.0656,458.467 Q111.0656,455.342 112.3781,453.6858 Q113.7063,452.0295 116.2063,452.0295 Q116.9094,452.0295 117.55,452.1858 Q118.2063,452.342 118.7688,452.6389 L118.7688,455.3577 Q118.1438,454.7795 117.55,454.5139 Q116.9563,454.2327 116.3313,454.2327 Q114.9875,454.2327 114.3,455.3108 Q113.6125,456.3733 113.6125,458.467 Q113.6125,460.5608 114.3,461.6389 Q114.9875,462.7014 116.3313,462.7014 Q116.9563,462.7014 117.55,462.4358 Q118.1438,462.1545 118.7688,461.5764 L118.7688,464.2952 Z " fill="#000000"/><text fill="#D9B8FF" font-family="Helvetica" font-size="17" lengthAdjust="spacing" textLength="158" x="136.2" y="464.5398">microsoft_resource</text><line style="stroke:#000D19;stroke-width:0.5;" x1="95.5" x2="307.5" y1="478.5491" y2="478.5491"/><text fill="#D9B8FF" font-family="sans-serif" font-size="14" font-weight="bold" lengthAdjust="spacing" textLength="35" x="105.5" y="500.5442">etag</text><text fill="#D9B8FF" font-family="sans-serif" font-size="14" lengthAdjust="spacing" textLength="48" x="140.5" y="500.5442">: string</text><text fill="#D9B8FF" font-family="sans-serif" font-size="14" font-weight="bold" lengthAdjust="spacing" textLength="144" x="105.5" y="526.8411">provisioning_state</text><text fill="#D9B8FF" font-family="sans-serif" font-size="14" lengthAdjust="spacing" textLength="48" x="249.5" y="526.8411">: string</text></g><!--class resource--><g id="elem_resource"><rect codeLine="33" fill="#3D176E" height="310.7578" id="resource" rx="2.5" ry="2.5" style="stroke:#000D19;stroke-width:0.5;" width="227" x="88" y="7"/><ellipse cx="156.75" cy="26.8945" fill="#ADD1B2" rx="11" ry="11" style="stroke:#181818;stroke-width:1.0;"/><path d="M159.7188,32.5352 Q159.1406,32.832 158.5,32.9727 Q157.8594,33.1289 157.1563,33.1289 Q154.6563,33.1289 153.3281,31.4883 Q152.0156,29.832 152.0156,26.707 Q152.0156,23.582 153.3281,21.9258 Q154.6563,20.2695 157.1563,20.2695 Q157.8594,20.2695 158.5,20.4258 Q159.1563,20.582 159.7188,20.8789 L159.7188,23.5977 Q159.0938,23.0195 158.5,22.7539 Q157.9063,22.4727 157.2813,22.4727 Q155.9375,22.4727 155.25,23.5508 Q154.5625,24.6133 154.5625,26.707 Q154.5625,28.8008 155.25,29.8789 Q155.9375,30.9414 157.2813,30.9414 Q157.9063,30.9414 158.5,30.6758 Q159.0938,30.3945 159.7188,29.8164 L159.7188,32.5352 Z " fill="#000000"/><text fill="#D9B8FF" font-family="Helvetica" font-size="17" lengthAdjust="spacing" textLength="71" x="182.25" y="32.7798">resource</text><line style="stroke:#000D19;stroke-width:0.5;" x1="89" x2="314" y1="46.7891" y2="46.7891"/><text fill="#D9B8FF" font-family="sans-serif" font-size="14" font-weight="bold" lengthAdjust="spacing" textLength="29" x="99" y="68.7842">age</text><text fill="#D9B8FF" font-family="sans-serif" font-size="14" lengthAdjust="spacing" textLength="66" x="128" y="68.7842">: duration</text><text fill="#D9B8FF" font-family="sans-serif" font-size="14" font-weight="bold" lengthAdjust="spacing" textLength="43" x="99" y="95.0811">atime</text><text fill="#D9B8FF" font-family="sans-serif" font-size="14" lengthAdjust="spacing" textLength="70" x="142" y="95.0811">: datetime</text><text fill="#D9B8FF" font-family="sans-serif" font-size="14" font-weight="bold" lengthAdjust="spacing" textLength="43" x="99" y="121.3779">ctime</text><text fill="#D9B8FF" font-family="sans-serif" font-size="14" lengthAdjust="spacing" textLength="70" x="142" y="121.3779">: datetime</text><text fill="#D9B8FF" font-family="sans-serif" font-size="14" font-weight="bold" lengthAdjust="spacing" textLength="14" x="99" y="147.6748">id</text><text fill="#D9B8FF" font-family="sans-serif" font-size="14" lengthAdjust="spacing" textLength="48" x="113" y="147.6748">: string</text><text fill="#D9B8FF" font-family="sans-serif" font-size="14" font-weight="bold" lengthAdjust="spacing" textLength="33" x="99" y="173.9717">kind</text><text fill="#D9B8FF" font-family="sans-serif" font-size="14" lengthAdjust="spacing" textLength="48" x="132" y="173.9717">: string</text><text fill="#D9B8FF" font-family="sans-serif" font-size="14" font-weight="bold" lengthAdjust="spacing" textLength="90" x="99" y="200.2686">last_access</text><text fill="#D9B8FF" font-family="sans-serif" font-size="14" lengthAdjust="spacing" textLength="66" x="189" y="200.2686">: duration</text><text fill="#D9B8FF" font-family="sans-serif" font-size="14" font-weight="bold" lengthAdjust="spacing" textLength="90" x="99" y="226.5654">last_update</text><text fill="#D9B8FF" font-family="sans-serif" font-size="14" lengthAdjust="spacing" textLength="66" x="189" y="226.5654">: duration</text><text fill="#D9B8FF" font-family="sans-serif" font-size="14" font-weight="bold" lengthAdjust="spacing" textLength="48" x="99" y="252.8623">mtime</text><text fill="#D9B8FF" font-family="sans-serif" font-size="14" lengthAdjust="spacing" textLength="70" x="147" y="252.8623">: datetime</text><text fill="#D9B8FF" font-family="sans-serif" font-size="14" font-weight="bold" lengthAdjust="spacing" textLength="43" x="99" y="279.1592">name</text><text fill="#D9B8FF" font-family="sans-serif" font-size="14" lengthAdjust="spacing" textLength="48" x="142" y="279.1592">: string</text><text fill="#D9B8FF" font-family="sans-serif" font-size="14" font-weight="bold" lengthAdjust="spacing" textLength="34" x="99" y="305.4561">tags</text><text fill="#D9B8FF" font-family="sans-serif" font-size="14" lengthAdjust="spacing" textLength="171" x="133" y="305.4561">: dictionary[string, string]</text></g><!--reverse link microsoft_resource to azure_sql_server_virtual_network_rule--><g id="link_microsoft_resource_azure_sql_server_virtual_network_rule"><path codeLine="45" d="M201.5,557.37 C201.5,591.84 201.5,620.5 201.5,659.67 " fill="none" id="microsoft_resource-backto-azure_sql_server_virtual_network_rule" style="stroke:#FFAF37;stroke-width:2.0;"/><polygon fill="none" points="201.5,539.37,195.5,557.37,207.5,557.37,201.5,539.37" style="stroke:#FFAF37;stroke-width:2.0;"/></g><!--reverse link resource to microsoft_resource--><g id="link_resource_microsoft_resource"><path codeLine="46" d="M201.5,336.06 C201.5,379.66 201.5,405.98 201.5,438.43 " fill="none" id="resource-backto-microsoft_resource" style="stroke:#FFAF37;stroke-width:2.0;"/><polygon fill="none" points="201.5,318.06,195.5,336.06,207.5,336.06,201.5,318.06" style="stroke:#FFAF37;stroke-width:2.0;"/></g><!--SRC=[ZPD1RzD048Nl_XKhzMOHAQ62D8XBYOJWKY7A3I5hl3jsLl7kcjcnenJux-p6ARBNQSlDUlFDcpTZUwSL2ZGj7uL1KoBvpE-rRO70Y5iYTzYwnf6ugYgehjTfyQEp_29m1mR59snwP2qX9RxjjDnRz5wy7fK-WDpNv3gh1dici3wKqFA8sZRW_IqpwR9Z78LHc_Acgb8oDRswLglrMvnXZXJI6LakbsgrIP4NHpsxzp_YNZ-WM8sFTkSOPp5d8qxKioaZCGevM_In_cJ6Bw2KjhLuCzA-3fd88atq-nqeTuXq1OqVZ_6CX8wFBMvdM-7cHbNhY_3df-1CnjC9UEW82_-pAJnIZrJqchY3fh381qVxWhe6nQyiptLjNK2DzZxaA_e0d7gqn0AjQfssdEVlHEbSWs13XsTWZ98FdvMjWn8JJOHqck_AwAlLYFfpZcgq9ETTnGMXTnt98HSor1FFbbollNOsnampF9fDBA0-8QeZuD0N5TPcq49xV0wQlA1DWkPvU05J8SpY0gGCFsKouLJfMdMEDwgO2tCicEIIK0-EMiOseEFteVRgpFm8grwusFlVYyNY_zvwbZJDtRA_]--></g></svg>

<svg xmlns="http://www.w3.org/2000/svg" width="403" height="820" viewBox="0 0 403 820"><rect width="389" height="152.977" x="7" y="660.14" fill="#3D176E" rx="2.5" ry="2.5" style="stroke:#000d19;stroke-width:.5"/><circle cx="32.35" cy="680.034" r="11" fill="#ADD1B2" style="stroke:#181818;stroke-width:1"/><path d="M35.319 685.675q-.578.297-1.219.438-.64.156-1.344.156-2.5 0-3.828-1.64-1.312-1.657-1.312-4.782t1.312-4.781q1.328-1.657 3.828-1.657.703 0 1.344.157.656.156 1.219.453v2.719q-.625-.579-1.219-.844-.594-.281-1.219-.281-1.343 0-2.031 1.078-.687 1.062-.687 3.156t.687 3.172q.688 1.062 2.031 1.062.625 0 1.219-.265.594-.282 1.219-.86z"/><text x="53.65" y="685.92" fill="#D9B8FF" font-family="Helvetica" font-size="17" textLength="324">azure_sql_server_virtual_network_rule</text><path d="M8 699.929h387" style="stroke:#000d19;stroke-width:.5"/><text x="18" y="721.924" fill="#D9B8FF" font-family="sans-serif" font-size="14" font-weight="bold" textLength="302">ignore_missing_vnet_service_endpoint</text><text x="320" y="721.924" fill="#D9B8FF" font-family="sans-serif" font-size="14" textLength="65">: boolean</text><text x="18" y="748.221" fill="#D9B8FF" font-family="sans-serif" font-size="14" font-weight="bold" textLength="40">state</text><text x="58" y="748.221" fill="#D9B8FF" font-family="sans-serif" font-size="14" textLength="48">: string</text><text x="18" y="774.518" fill="#D9B8FF" font-family="sans-serif" font-size="14" font-weight="bold" textLength="35">type</text><text x="53" y="774.518" fill="#D9B8FF" font-family="sans-serif" font-size="14" textLength="48">: string</text><text x="18" y="800.815" fill="#D9B8FF" font-family="sans-serif" font-size="14" font-weight="bold" textLength="205">virtual_network_subnet_id</text><text x="223" y="800.815" fill="#D9B8FF" font-family="sans-serif" font-size="14" textLength="48">: string</text><rect width="214" height="100.383" x="94.5" y="438.76" fill="#3D176E" rx="2.5" ry="2.5" style="stroke:#000d19;stroke-width:.5"/><circle cx="115.8" cy="458.654" r="11" fill="#ADD1B2" style="stroke:#181818;stroke-width:1"/><path d="M118.769 464.295q-.578.297-1.219.438-.64.156-1.344.156-2.5 0-3.828-1.64-1.312-1.657-1.312-4.782t1.312-4.781q1.328-1.656 3.828-1.656.703 0 1.344.156.656.156 1.219.453v2.719q-.625-.579-1.219-.844-.594-.281-1.219-.281-1.344 0-2.031 1.078-.687 1.062-.687 3.156t.687 3.172q.688 1.062 2.031 1.062.625 0 1.219-.265.594-.281 1.219-.86z"/><text x="136.2" y="464.54" fill="#D9B8FF" font-family="Helvetica" font-size="17" textLength="158">microsoft_resource</text><path d="M95.5 478.549h212" style="stroke:#000d19;stroke-width:.5"/><text x="105.5" y="500.544" fill="#D9B8FF" font-family="sans-serif" font-size="14" font-weight="bold" textLength="35">etag</text><text x="140.5" y="500.544" fill="#D9B8FF" font-family="sans-serif" font-size="14" textLength="48">: string</text><text x="105.5" y="526.841" fill="#D9B8FF" font-family="sans-serif" font-size="14" font-weight="bold" textLength="144">provisioning_state</text><text x="249.5" y="526.841" fill="#D9B8FF" font-family="sans-serif" font-size="14" textLength="48">: string</text><rect width="227" height="310.758" x="88" y="7" fill="#3D176E" rx="2.5" ry="2.5" style="stroke:#000d19;stroke-width:.5"/><circle cx="156.75" cy="26.895" r="11" fill="#ADD1B2" style="stroke:#181818;stroke-width:1"/><path d="M159.719 32.535q-.578.297-1.219.438-.64.156-1.344.156-2.5 0-3.828-1.64-1.312-1.657-1.312-4.782t1.312-4.781q1.328-1.656 3.828-1.656.703 0 1.344.156.656.156 1.219.453v2.719q-.625-.578-1.219-.844-.594-.281-1.219-.281-1.344 0-2.031 1.078-.687 1.062-.687 3.156t.687 3.172q.688 1.062 2.031 1.062.625 0 1.219-.265.594-.281 1.219-.86z"/><text x="182.25" y="32.78" fill="#D9B8FF" font-family="Helvetica" font-size="17" textLength="71">resource</text><path d="M89 46.789h225" style="stroke:#000d19;stroke-width:.5"/><text x="99" y="68.784" fill="#D9B8FF" font-family="sans-serif" font-size="14" font-weight="bold" textLength="29">age</text><text x="128" y="68.784" fill="#D9B8FF" font-family="sans-serif" font-size="14" textLength="66">: duration</text><text x="99" y="95.081" fill="#D9B8FF" font-family="sans-serif" font-size="14" font-weight="bold" textLength="43">atime</text><text x="142" y="95.081" fill="#D9B8FF" font-family="sans-serif" font-size="14" textLength="70">: datetime</text><text x="99" y="121.378" fill="#D9B8FF" font-family="sans-serif" font-size="14" font-weight="bold" textLength="43">ctime</text><text x="142" y="121.378" fill="#D9B8FF" font-family="sans-serif" font-size="14" textLength="70">: datetime</text><text x="99" y="147.675" fill="#D9B8FF" font-family="sans-serif" font-size="14" font-weight="bold" textLength="14">id</text><text x="113" y="147.675" fill="#D9B8FF" font-family="sans-serif" font-size="14" textLength="48">: string</text><text x="99" y="173.972" fill="#D9B8FF" font-family="sans-serif" font-size="14" font-weight="bold" textLength="33">kind</text><text x="132" y="173.972" fill="#D9B8FF" font-family="sans-serif" font-size="14" textLength="48">: string</text><text x="99" y="200.269" fill="#D9B8FF" font-family="sans-serif" font-size="14" font-weight="bold" textLength="90">last_access</text><text x="189" y="200.269" fill="#D9B8FF" font-family="sans-serif" font-size="14" textLength="66">: duration</text><text x="99" y="226.565" fill="#D9B8FF" font-family="sans-serif" font-size="14" font-weight="bold" textLength="90">last_update</text><text x="189" y="226.565" fill="#D9B8FF" font-family="sans-serif" font-size="14" textLength="66">: duration</text><text x="99" y="252.862" fill="#D9B8FF" font-family="sans-serif" font-size="14" font-weight="bold" textLength="48">mtime</text><text x="147" y="252.862" fill="#D9B8FF" font-family="sans-serif" font-size="14" textLength="70">: datetime</text><text x="99" y="279.159" fill="#D9B8FF" font-family="sans-serif" font-size="14" font-weight="bold" textLength="43">name</text><text x="142" y="279.159" fill="#D9B8FF" font-family="sans-serif" font-size="14" textLength="48">: string</text><text x="99" y="305.456" fill="#D9B8FF" font-family="sans-serif" font-size="14" font-weight="bold" textLength="34">tags</text><text x="133" y="305.456" fill="#D9B8FF" font-family="sans-serif" font-size="14" textLength="171">: dictionary[string, string]</text><path fill="none" d="M201.5 557.37v102.3m0-120.3-6 18h12zm0-203.31v102.37m0-120.37-6 18h12z" style="stroke:#ffaf37;stroke-width:2"/></svg>
